X:72
T:RVW2/2/72 Come Buy Me A Hawk And A Hound
C:Sung by Mrs.Humphreys, Ingrave, Essex, 25 April 1904
L:1/8
Q:1/4=99
M:6/8
I:linebreak $
K:G
"^(Editorial suggestion)  " B | Gdd cAB |[M:3/8] G2 B/c/ |[M:6/8] def gef | d3- d2 c |$ def (gf)g | 
w: Come|buy me a hawk and a|hound and a|beau- ti- ful gil- liard to|ride _ for|I have been slee- * ping|
edB A2 B/B/ | Gdd cAB | G3- G2 ||$"^Chorus" B/B/ | Gdd cAB |[M:3/8] G2 B/c/ |[M:6/8] def gef | 
w: all this night long and no-|one then to lay by my|side. _|Here's a-|dieu to old Eng- land fare-|well, Here's a-|dieu to ten thou- sand of|
d3- d2 c/c/ |$ def ggg | edB A2 B | Gdd cAB | G3 z2 |] 
w: foes _ If the|world had been end- ed when|we were all young our|sor- rows ne'er should have been|known.|



